X: 1
T: Jesse 'The Body' Ventura's
M: 4/4
L: 1/8
R: reel
K: Dmaj
~d3c ddef|~A3B ABAG|d~A3 eA{B}de|e~f3 edBc|
~d3c dAef|~A3B ABAG|d~A3 eAf~(A|A2) ef~d3c|
e~A3 eAf~(A|A2)eA fAga|e~A3 eA (3efg|~a3f gedB|
e~A3 eAf~(A|A2)eA fA (3efg|~a3f ~g3e|fdec dABc|
